X: 30873
T: COTILLION No. 5. ST. LOUIS SETT tune 5
%R: march, reel
B: Elias Howe "The Musician's Companion" Part 3 1844 p.87 #3
S: http://imslp.org/wiki/The_Musician's_Companion_(Howe,_Elias)
Z: 2015 John Chambers <jc:trillian.mit.edu>
M: 2/4
L: 1/16
K: F
% - - - - - - - - - - - - - - - - - - - - - - - - - - - - -
ag |\
f2c2A2c2 | [f6d6] [eB][fc] | .g2.g2.g2.g2 | g6 fg |\
a2a2a2a2 | a2ba g2ag | f2f2 efge | f4 z2 H|]
fe |\
d2d2e2f2 | g6 fe | d2d2e2f2 | g4 z2fe |\
d2d2e2f2 | g2gg g2ff | f2ee e2dd | c4 z2c2 |
f2ff f2f2 | f6 cc | f2c2A2F2 | c2c2 z2c2 |\
f2ff f2f2 | f4 z2ga | agfe gfed | c4 "^D.C."z2 |]
% - - - - - - - - - - Dance description - - - - - - - - - -
%%begintext align
%% 2 ladies forward and back,
%% 2 gentlemen the same,
%% balance 4,
%% and turn partners,
%% grand chain,
%% promenade 8.
%% Sides the same.
%%endtext
% - - - - - - - - - - - - - - - - - - - - - - - - - - - - -
%%sep 1 1 300
